X: 36439
T: Seasick Dee
R: slip jig
M: 9/8
K: Dmajor
|:D2 AD FGA|G2 GF GFG|A2 dA cde|dc AG FGE|
D2 AD FGA|G2 GF GFG|GA dA cde|dc AG FGE:|
DA dA def|e2 ef edc|A2 dA cde|dc AG FGE|
D2 dA def|e2 ef edc|da af g2e|ff ef edc|
AA dA def|ef gf edc|A2 dA cde|dc AG FGE|
D2 dA def|e2 ef edc|da af g2e|ff ef edc|

